packages/dnb-eufemia/assets/icons/horse.svg

<svg width="16" height="16" viewBox="0 0 16 16" fill="none" xmlns="http://www.w3.org/2000/svg">
<path d="M5.52987 2.95286L3.34752 1C3.34752 1 2.86679 2.19749 3.03615 2.95272C3.26433 3.97028 4.90437 4.90544 4.90437 4.90544M5.52987 2.95286C6.53021 2.04915 8.2933 1.27896 10.1615 2.95272M5.52987 2.95286C5.03815 3.4506 4.59361 4.06856 4.90437 4.90544M4.90437 4.90544C6.25258 7.36478 7.38754 7.76782 9.73337 7.66031C9.86803 6.45386 10.798 5.77199 11.0956 4.90544M4.90437 4.90544C3.75205 7.13315 3.86512 8.36566 5.88016 10.171C5.50839 10.6373 4.32055 11.8795 4.90437 12.9953C5.07922 13.3295 5.56796 13.7353 5.83848 14.1111C6.3982 14.8887 7.37281 15 8.31137 15C9.24993 15 9.6018 14.8887 10.1615 14.1111C10.432 13.7353 10.9208 13.3295 11.0956 12.9953C11.6123 12.0077 11.2004 10.7395 10.12 10.171C11.935 8.48233 12.3703 6.94928 11.0956 4.90544M11.0956 4.90544C11.0956 4.90544 12.7357 3.97028 12.9639 2.95272C13.1332 2.19749 12.6525 1 12.6525 1L10.1615 2.95272M11.0956 4.90544C11.2872 4.34752 10.1615 2.95272 10.1615 2.95272" stroke="black" stroke-width="1.5" stroke-linecap="round" stroke-linejoin="round"/>
<path d="M7.59701 12.5442C7.50166 12.9447 7.5188 13.28 6.88953 13.1304C6.59414 13.0537 6.43198 12.6668 6.52732 12.2663C6.62267 11.8659 6.93942 11.6034 7.23481 11.6801C7.53019 11.7568 7.69236 12.1437 7.59701 12.5442Z" fill="black"/>
<path d="M8.40343 12.5441C8.49878 12.9445 8.48168 13.2799 9.11069 13.1304C9.40595 13.0537 9.56801 12.6668 9.47266 12.2663C9.37732 11.8659 9.06067 11.6034 8.76541 11.6801C8.47015 11.7567 8.30808 12.1436 8.40343 12.5441Z" fill="black"/>
</svg>

<svg width="16" height="16" viewBox="0 0 16 16" fill="none" xmlns="http://www.w3.org/2000/svg"><path d="M5.53 2.953 3.347 1s-.48 1.197-.311 1.953c.228 1.017 1.868 1.952 1.868 1.952m.626-1.952c1-.904 2.763-1.674 4.631 0m-4.631 0c-.492.498-.937 1.116-.626 1.952m0 0c1.348 2.46 2.483 2.863 4.83 2.755.134-1.206 1.064-1.888 1.361-2.755m-6.19 0c-1.153 2.228-1.04 3.46.975 5.266-.372.466-1.56 1.709-.976 2.824.175.335.664.74.934 1.116.56.778 1.535.889 2.473.889.939 0 1.29-.111 1.85-.889.27-.376.76-.782.934-1.116.517-.987.105-2.255-.975-2.824 1.815-1.689 2.25-3.222.976-5.266m0 0s1.64-.935 1.868-1.952c.17-.756-.312-1.953-.312-1.953l-2.49 1.953m.933 1.952c.192-.557-.934-1.952-.934-1.952m-2.985 9.461h.02m1.628 0h-.02" stroke="#000" stroke-width="1.5" stroke-linecap="round" stroke-linejoin="round"/></svg>
